icons/op-copy-24.svg

<svg width="24" height="24" viewBox="0 0 24 24" fill="none" xmlns="http://www.w3.org/2000/svg">
<path d="M10.9517 12.9375H16.1932V13.9062H10.9517V12.9375ZM19 7.03125L15.7198 4V4.03125V4H8.04348V17.0625H19V7.03125ZM9.3285 15.875V5.1875H15.1787L17.7488 7.53125V15.875H9.3285ZM13.6908 18.8125H6.25121V8H7.60386V6.84375H5V20H14.9758V17.5625H13.6908V18.8125ZM10.9517 10.4062H16.1932V11.4062H10.9517V10.4062ZM10.9517 7.875H16.1932V8.875H10.9517V7.875Z" fill="black"/>
</svg>

<svg xmlns="http://www.w3.org/2000/svg" width="24" height="24" viewBox="0 0 24 24"><path d="M10.952 12.938h5.241v.968h-5.241v-.968ZM19 7.031 15.72 4v.031V4H8.043v13.062H19V7.031Zm-9.671 8.844V5.188h5.85l2.57 2.343v8.344h-8.42Zm4.362 2.937h-7.44V8h1.353V6.844H5V20h9.976v-2.438h-1.285v1.25Zm-2.739-8.406h5.241v1h-5.241v-1Zm0-2.531h5.241v1h-5.241v-1Z"/></svg>
